src/assets/images/origin.svg

<svg width="40" height="40" fill="none" xmlns="http://www.w3.org/2000/svg"><path d="M20 40C8.954 40 0 31.046 0 20S8.954 0 20 0s20 8.954 20 20-8.954 20-20 20Zm12.71-12.096v-.21c0-1.844 0-2.686-1.304-3.432a14.75 14.75 0 0 0-1.29-.65c-.734-.334-1.22-.552-1.876-1.512a24.062 24.062 0 0 1-.232-.344c-.69-1.05-1.188-1.806-3.084-1.506-3.73.592-4.006 1.248-4.17 2.356l-.026.182c-.242 1.62-.286 2.164.39 2.874 2.53 2.654 4.046 4.568 4.506 5.688.224.546.8 2.2.404 3.836a16.37 16.37 0 0 0 6.302-4.474c.22-.748.38-1.68.38-2.808ZM20 3.666A16.29 16.29 0 0 0 8.208 8.698c.354.246.662.592.874 1.068.408.914.408 1.856.408 2.69 0 .656 0 1.28.21 1.73.288.616 1.532.88 2.63 1.108.394.084.798.168 1.166.27 1.012.28 1.796 1.19 2.422 1.92.26.302.646.748.84.86.1-.072.422-.422.58-.996.124-.44.088-.828-.09-1.04-1.12-1.32-1.058-3.86-.712-4.798.544-1.478 2.244-1.368 3.488-1.288.464.03.9.06 1.228.018 1.244-.156 1.628-2.05 1.898-2.42.584-.8 2.372-2.006 3.48-2.75A16.276 16.276 0 0 0 20 3.666Z" fill="url(#a)"/><defs><linearGradient id="a" x1="-3.765" y1="-7.931" x2="45.29" y2=".244" gradientUnits="userSpaceOnUse"><stop stop-color="#9DFE00"/><stop offset="1" stop-color="#14D9E6"/></linearGradient></defs></svg>

<svg width="40" height="40" viewBox="0 0 40 40" fill="none" xmlns="http://www.w3.org/2000/svg">
<path d="M20 40C8.954 40 0 31.046 0 20C0 8.954 8.954 0 20 0C31.046 0 40 8.954 40 20C40 31.046 31.046 40 20 40ZM32.71 27.904V27.694C32.71 25.85 32.71 25.008 31.406 24.262C30.9869 24.0244 30.5564 23.8075 30.116 23.612C29.382 23.278 28.896 23.06 28.24 22.1C28.1617 21.986 28.0843 21.8713 28.008 21.756C27.318 20.706 26.82 19.95 24.924 20.25C21.194 20.842 20.918 21.498 20.754 22.606L20.728 22.788C20.486 24.408 20.442 24.952 21.118 25.662C23.648 28.316 25.164 30.23 25.624 31.35C25.848 31.896 26.424 33.55 26.028 35.186C28.4556 34.219 30.6165 32.685 32.33 30.712C32.55 29.964 32.71 29.032 32.71 27.904ZM20 3.666C15.366 3.666 11.18 5.598 8.208 8.698C8.562 8.944 8.87 9.29 9.082 9.766C9.49 10.68 9.49 11.622 9.49 12.456C9.49 13.112 9.49 13.736 9.7 14.186C9.988 14.802 11.232 15.066 12.33 15.294C12.724 15.378 13.128 15.462 13.496 15.564C14.508 15.844 15.292 16.754 15.918 17.484C16.178 17.786 16.564 18.232 16.758 18.344C16.858 18.272 17.18 17.922 17.338 17.348C17.462 16.908 17.426 16.52 17.248 16.308C16.128 14.988 16.19 12.448 16.536 11.51C17.08 10.032 18.78 10.142 20.024 10.222C20.488 10.252 20.924 10.282 21.252 10.24C22.496 10.084 22.88 8.19 23.15 7.82C23.734 7.02 25.522 5.814 26.63 5.07C24.543 4.14199 22.284 3.66362 20 3.666Z" fill="url(#paint0_linear_2_1585)"/>
<defs>
<linearGradient id="paint0_linear_2_1585" x1="-3.7647" y1="-7.93104" x2="45.2902" y2="0.243667" gradientUnits="userSpaceOnUse">
<stop stop-color="#9DFE00"/>
<stop offset="1" stop-color="#14D9E6"/>
</linearGradient>
</defs>
</svg>
